build/svg/cmd/lc_patternfield.svg

<?xml version="1.0" encoding="UTF-8" standalone="no"?>
<svg
   xmlns:dc="http://purl.org/dc/elements/1.1/"
   xmlns:cc="http://creativecommons.org/ns#"
   xmlns:rdf="http://www.w3.org/1999/02/22-rdf-syntax-ns#"
   xmlns:svg="http://www.w3.org/2000/svg"
   xmlns="http://www.w3.org/2000/svg"
   xmlns:sodipodi="http://sodipodi.sourceforge.net/DTD/sodipodi-0.dtd"
   xmlns:inkscape="http://www.inkscape.org/namespaces/inkscape"
   viewBox="0 0 24 24"
   version="1.1"
   id="svg4"
   sodipodi:docname="lc_patternfield.svg"
   inkscape:version="0.92.5 (2060ec1f9f, 2020-04-08)"
   inkscape:export-filename="/home/jupiter007/Libreoffice yaru theme fullcolor/build/cmd/lc_patternfield.png"
   inkscape:export-xdpi="95"
   inkscape:export-ydpi="95">
  <metadata
     id="metadata10">
    <rdf:RDF>
      <cc:Work
         rdf:about="">
        <dc:format>image/svg+xml</dc:format>
        <dc:type
           rdf:resource="http://purl.org/dc/dcmitype/StillImage" />
      </cc:Work>
    </rdf:RDF>
  </metadata>
  <defs
     id="defs8" />
  <sodipodi:namedview
     pagecolor="#ffffff"
     bordercolor="#666666"
     borderopacity="1"
     objecttolerance="10"
     gridtolerance="10"
     guidetolerance="10"
     inkscape:pageopacity="0"
     inkscape:pageshadow="2"
     inkscape:window-width="1920"
     inkscape:window-height="1011"
     id="namedview6"
     showgrid="true"
     inkscape:zoom="27.812867"
     inkscape:cx="-0.086137891"
     inkscape:cy="10.324045"
     inkscape:window-x="0"
     inkscape:window-y="32"
     inkscape:window-maximized="1"
     inkscape:current-layer="svg4">
    <inkscape:grid
       type="xygrid"
       id="grid827" />
  </sodipodi:namedview>
  <path
     sodipodi:nodetypes="cccscsccccccccscscccccc"
     inkscape:connector-curvature="0"
     id="path4237-1"
     d="M 6.9941128,2.999635 C 5.7359118,3.014755 4.8152218,2.969395 4.0624728,3.384391 3.6861068,3.591887 3.3892408,3.943799 3.2245815,4.382451 3.0599075,4.821103 2.9999642,5.342035 2.9999642,5.999635 V 7.4879 17.000366 c 0,0.657599 0.059905,1.17857 0.2246173,1.617184 0.1646743,0.438614 0.4615293,0.788522 0.8378913,0.996094 0.752719,0.415106 1.673541,0.371528 2.93164,0.386721 h 0.002 10.0058612 0.0038 c 1.25819,-0.01512 2.17889,0.03024 2.93164,-0.384793 0.376365,-0.207495 0.673221,-0.55937 0.837891,-0.998021 0.164523,-0.43869 0.224617,-0.959585 0.224617,-1.617185 V 7.466432 5.999635 c 0,-0.6576 -0.05991,-1.17857 -0.224617,-1.617184 C 20.610609,3.943836 20.313754,3.593928 19.937392,3.386356 19.184624,2.971213 18.263791,3.014829 17.005703,2.999635 h -0.002 -10.0058612 z"
     style="font-style:normal;font-variant:normal;font-weight:normal;font-stretch:normal;font-size:15px;line-height:125%;font-family:Ubuntu;-inkscape-font-specification:Ubuntu;text-align:center;letter-spacing:0px;word-spacing:0px;writing-mode:lr-tb;text-anchor:middle;display:inline;opacity:0.6;fill:#000000;fill-opacity:1;stroke:none;stroke-width:0.99980205" />
  <path
     inkscape:connector-curvature="0"
     id="path1993"
     d="m 9.9833408,4.026835 c -1.556579,0.01134 -3.109992,-0.01134 -4.659942,0.03893 -0.461227,0.04271 -1.016187,0.206362 -1.155337,0.709947 -0.218986,0.635338 -0.108397,1.333795 -0.145815,1.981908 -0.0079,2.297122 -0.02306,8.596574 0.02154,10.885947 0.03912,0.461934 0.202545,1.012649 0.698756,1.16364 0.632458,0.22526 1.284147,0.122835 1.935976,0.154206 1.424236,0.0076 4.8505622,0.01134 6.2764192,0.01134 1.70453,3.4e-4 3.40839,-0.0038 5.107189,-0.0189 0.511911,-0.01134 1.183699,0.0189 1.584745,-0.405165 0.4211,-0.539793 0.287093,-1.268032 0.322734,-1.903786 0.01172,-2.444334 0.02759,-8.911258 -0.02192,-11.356952 C 19.898396,4.885923 19.777681,4.425009 19.372546,4.243478 18.704375,3.949431 17.946341,4.075667 17.246622,4.037872 15.492218,4.026532 11.737749,4.026532 9.9833118,4.026532 Z"
     style="opacity:1;vector-effect:none;fill:#a6d74f;fill-opacity:1;stroke:none;stroke-width:1;stroke-linecap:round;stroke-linejoin:bevel;stroke-miterlimit:4;stroke-dasharray:none;stroke-dashoffset:0;stroke-opacity:1"
     sodipodi:nodetypes="cccccccsccccccc" />
  <path
     style="opacity:1;fill:#4d4d4d;fill-opacity:1;stroke:none;stroke-width:2;stroke-linejoin:round;stroke-miterlimit:4;stroke-dasharray:none;stroke-opacity:1"
     d="M 6 7 L 6 16 L 8 16 L 10 16 L 10 14 L 8 14 L 8 7 L 6 7 z "
     id="rect829" />
  <path
     style="opacity:1;fill:#4d4d4d;fill-opacity:1;stroke:none;stroke-width:2;stroke-linejoin:round;stroke-miterlimit:4;stroke-dasharray:none;stroke-opacity:1"
     d="M 12 7 L 12 8 L 12 16 L 14 16 L 14 12 L 16 16 L 18 16 L 18 7 L 16 7 L 16 11 L 14 7 L 12 7 z "
     id="rect833" />
</svg>

<svg xmlns="http://www.w3.org/2000/svg" viewBox="0 0 24 24"><path d="M6.994 3c-1.258.015-2.179-.03-2.932.384-.376.208-.673.56-.837.998C3.06 4.822 3 5.342 3 6v11c0 .658.06 1.179.225 1.618.164.438.461.788.837.996.753.415 1.674.371 2.932.386h10.012c1.258-.015 2.179.03 2.931-.384.377-.208.674-.56.838-.998.165-.44.225-.96.225-1.618V6c0-.658-.06-1.179-.225-1.618a1.875 1.875 0 00-.838-.996c-.752-.415-1.673-.371-2.931-.386H6.998z" style="line-height:125%;-inkscape-font-specification:Ubuntu;text-align:center" font-weight="400" font-size="15" font-family="Ubuntu" letter-spacing="0" word-spacing="0" text-anchor="middle" opacity=".6"/><path d="M9.983 4.027c-1.556.011-3.11-.012-4.66.039-.46.042-1.016.206-1.155.71-.219.635-.108 1.334-.146 1.982-.008 2.297-.023 8.596.022 10.886.039.462.202 1.012.699 1.163.632.225 1.284.123 1.936.154 1.424.008 4.85.012 6.276.012 1.704 0 3.408-.004 5.107-.02.512-.01 1.184.02 1.585-.404.421-.54.287-1.268.323-1.904.011-2.444.027-8.911-.022-11.357-.05-.402-.17-.863-.575-1.045-.669-.294-1.427-.167-2.126-.205-1.755-.011-5.51-.011-7.264-.011z" fill="#a6d74f"/><path d="M6 7v9h4v-2H8V7H6zM12 7v9h2v-4l2 4h2V7h-2v4l-2-4h-2z" fill="#4d4d4d"/></svg>
